data/styles/clear/style-clear/symbols/bookmaker-m.svg

<svg height="24" viewBox="0 0 24 24" width="24"><g fill="none" fill-rule="evenodd"><circle cx="12" cy="12" fill="#fff" opacity=".6" r="12"/><circle cx="12" cy="12" fill="#717065" r="11"/><path d="m10.25 7c-2.91666667 0-5.25 2.22222222-5.25 5 0 2.7777778 2.33333333 5 5.25 5 2.9166667 0 5.25-2.2222222 5.25-5 0-2.77777778-2.3333333-5-5.25-5zm3.1536458.17361111c1.6333334 1.05555556 2.6796875 2.82638889 2.6796875 4.82638889s-1.0463541 3.7708333-2.6796875 4.8263889c2.2166667-.6111111 3.8463542-2.4930556 3.8463542-4.8263889 0-2.33333333-1.6296875-4.21527778-3.8463542-4.82638889zm1.75 0c1.6333334 1.05555556 2.6796875 2.82638889 2.6796875 4.82638889s-1.0463541 3.7708333-2.6796875 4.8263889c2.2166667-.6111111 3.8463542-2.4930556 3.8463542-4.8263889 0-2.33333333-1.6296875-4.21527778-3.8463542-4.82638889zm-4.3203125 2.60416667v4.44444442h-1.16666663v-2.7777778h-1.16666667v-.8333333c1.16666667-.1111111 2.3333333-.83333332 2.3333333-.83333332z" fill="#fff" fill-rule="nonzero"/></g></svg>

<svg width="24" height="24" viewBox="0 0 24 24">
  <g fill="none" fill-rule="evenodd">
    <circle cx="12" cy="12" r="12" fill="#FFF" opacity=".6"/>
    <circle cx="12" cy="12" r="11" fill="#717065"/>
    <path fill="#FFF" fill-rule="nonzero" d="M10.25,7 C7.33333333,7 5,9.22222222 5,12 C5,14.7777778 7.33333333,17 10.25,17 C13.1666667,17 15.5,14.7777778 15.5,12 C15.5,9.22222222 13.1666667,7 10.25,7 Z M13.4036458,7.17361111 C15.0369792,8.22916667 16.0833333,10 16.0833333,12 C16.0833333,14 15.0369792,15.7708333 13.4036458,16.8263889 C15.6203125,16.2152778 17.25,14.3333333 17.25,12 C17.25,9.66666667 15.6203125,7.78472222 13.4036458,7.17361111 Z M15.1536458,7.17361111 C16.7869792,8.22916667 17.8333333,10 17.8333333,12 C17.8333333,14 16.7869792,15.7708333 15.1536458,16.8263889 C17.3703125,16.2152778 19,14.3333333 19,12 C19,9.66666667 17.3703125,7.78472222 15.1536458,7.17361111 Z M10.8333333,9.77777778 L10.8333333,14.2222222 L9.66666667,14.2222222 L9.66666667,11.4444444 L8.5,11.4444444 L8.5,10.6111111 C9.66666667,10.5 10.8333333,9.77777778 10.8333333,9.77777778 Z"/>
  </g>
</svg>
